X:94
T:The flogging reel
R:Reel
O:Ireland
B:O'Neill's 1206
S:O'Neill's 1206
Z:Transcription, corrections, minor arr., chords:Mike Long
M:C|
L:1/8
K:G
dc|:\
"G"BG~G2 BGdG|BG~G2 Bdgd|\
BG~G2 BdcB|"D"AGFG ABcA:|
"G"~g2gd BGBd|{a}"G"gfge "D"fgaf| "G"~g2gd BcdB|"D"AGFG ABcA|
"G"~g2gd BGBd|"G"~g2ge "D"fgaf|"G"bgaf gedB|"D"AGFG ABcA|]
"G"Bdgd (3(Bcd) (gd)|Bdgd BGGB|"F"Ac=fc (3(A_Bc) (fc)|Ac=fc AFFc|
"G"Bdgd (3(Bcd) (gd)|Bdef g2ga|(3(bag) af gedB|"D"AGFG ABcA|]
